X:1
T:I Am So Glad Salvation’s Free
T:John Edmond Thomas
T:I Am So Glad Salvation’s Free
T:Musi
T:Musi
T:Musi
C:John Edmond Thomas
Z:Musi
%%score ( 1 2 ) ( 3 4 )
L:1/8
M:6/8
K:F
V:1 treble 
V:2 treble 
V:3 bass 
V:4 bass 
V:1
 C[CD][CE] [CF]2 [CG] | [FA]2 [FG] [CF]2 [CF] | [DF]2 [B,D] [DF]2 [DG] | [DF]3 C2 z | %4
w: 1.~I am so glad sal-|tion’s free to all|who will re- ceive|it, Glad|
w: 2.~I am so glad that|can tell to way-|ward souls the sto-|ry, Glad|
w: 3.~I am so glad that|my heart to Je-|sus I have giv-|en, Glad|
 C[CD][CE] [CF]2 [CG] | [FA]2 [FG] [CF]2 [FA] | [EG]2 [Ec] [Fd]2 [Ge] | [Ec]3- [Ec]2 z | %8
w: the news was brought to|when I was lost|and sad; Praise His|dear *|
w: by grace from day to|a help- er I|may be; Find- ing|de- *|
w: at ev- en- tide my|true sheaves to Him|may bring; I will|be *|
 C[CD][CE] [CF]2 [CG] | [FA]2 [FG] [CF]2 [CF] | [DF]2 [B,D] [DF]2 [DG] | [CF]3 C2 z | %12
w: name, I can pro- claim|tru- ly I be-|lieve it, For I|am now|
w: light in serv- ice true,|soul is win- ning|glo- ry, Glo- ry|for Him|
w: true un- til with all|hap- py throng in|Heav- en, Sweet- er|and no-|
 C[CD][CE] [CF]2 [CG] | [FA]2 [FB] [Fc]2 [Fd] | [FA]3 [CG]3 | [CF]3- [CF]2 z || %16
w: child, I know, and I’m|glad. Glo- ry, hon-|or be|to *|
w: gave His life to res-|me. * * *|||
w: praise I give to Christ,|king. * * *|||
"^Refrain" (AAG) (F2 F) | (FFF) (C2 C) | [DG][DF][B,D] [DF]2 [DG] | [CF]3 C2 z | %20
w: His * * name *|er, * * Nev- *|great- er friend the sin-|ful race|
w: ||||
w: ||||
 C[CD][CE] [CF]2 [CG] | [FA]2 [Fc] [Fd]2 [Fc] | [Ge]3 [Fd]3 | (z de [Ec]2) z | AAG (F2 F) | %25
w: had; Love Him, praise Him,|sus, the match- less|Sav- ior,||* * * has *|
w: |||||
w: |||||
 (FED) (C2 ^C) | [DG][DF][B,D] [DF]2 [DG] | [CF]3 C2 z | C[CD][CE] [CF]2 [CG] | %29
w: deemed * * this *|mine, and I’m so glad.|||
w: ||||
w: ||||
 [FA]2 [FB] [Fc]2 [Fd] | [FA]3 [CG]3 | [CF]6 |] %32
w: |||
w: |||
w: |||
V:2
 C x5 | x6 | x6 | x3 C2 x | C x5 | x6 | x6 | x6 | C x5 | x6 | x6 | x3 C2 x | C x5 | x6 | x6 | x6 || %16
w: va-|||that|me||||that|||His|so||||
w: I|||that|day||||my|||who|cue||||
w: all|||that|soul||||the|||bler|my||||
 f3 c3 | A3 F3 | x6 | x3 C2 x | C x5 | x6 | x6 | [Ec]3- x3 | f3 c3 | A3 F3 | x6 | x3 C2 x | C x5 | %29
w: for- ev-|er a||has|Je-|||He|re- *|soul of||||
w: |||||||||||||
w: |||||||||||||
 x6 | x6 | x6 |] %32
w: |||
w: |||
w: |||
V:3
 [F,A,][F,B,][F,C] [F,A,]2 [F,B,] | [F,C]2 [F,B,] [F,A,]2 [F,A,] | %2
w: ~ ~ ~ ~ ~|~ ~ ~ ~|
 [B,,B,]2 [B,,F,] [B,,B,]2 [B,,B,] | [F,A,]3 [F,A,]2 z | [F,A,][F,B,][F,C] [F,A,]2 [F,B,] | %5
w: ~ ~ ~ ~|~ ~|~ ~ ~ ~ ~|
 [F,C]2 [F,B,] [F,A,]2 [F,C] | [G,C]2 [G,C] [G,=B,]2 [G,B,] | [C,C]3- [C,C]2 z | %8
w: ~ ~ ~ ~|~ ~ ~ ~|~ *|
 [F,A,][F,B,][F,C] [F,A,]2 [F,B,] | [F,C]2 [F,B,] [F,A,]2 [F,A,] | %10
w: ~ ~ ~ ~ ~|~ ~ ~ ~|
 [B,,B,]2 [B,,F,] [B,,B,]2 [B,,B,] | [F,A,]3 [F,A,]2 z | [F,A,][F,B,][F,C] [F,A,]2 [F,B,] | %13
w: ~ ~ ~ ~|~ ~|~ ~ ~ ~ ~|
 [F,C]2 [D,B,] [A,,A,]2 [B,,G,] | [C,F,]3 [C,B,]3 | [F,A,]3- [F,A,]2 z || %16
w: ~ ~ ~ ~|~ ~|~ *|
 [F,C][F,C][F,B,] [F,A,]2 [F,A,] | [F,C][F,C][F,C] [F,A,]2 [F,A,] | %18
w: Glo- ry to Je- sus,|glo- ry and hon- or,|
 [B,,B,][B,,B,][B,,F,] [B,,B,]2 [B,,B,] | [F,A,]3 [F,A,]2 z | [F,A,][F,B,][F,C] [F,A,]2 [F,B,] | %21
w: ~ ~ ~ ~ ~|~ ~|~ ~ ~ ~ ~|
 [F,C]2 [F,A,] [F,B,]2 [A,C] | [G,C]3 [G,=B,]3 | (z D,E, [C,C]2) z | %24
w: ~ ~ ~ ~|~ ~||
 [F,C][F,C][F,B,] [F,A,]2 [F,A,] | [F,C][F,C][F,B,] [F,A,]2 [F,A,] | %26
w: * Love Him and serve|Him, Love Him and praise|
 [B,,B,][B,,B,][B,,F,] [B,,B,]2 [B,,B,] | [F,A,]3 [F,A,]2 z | [F,A,][F,B,][F,C] [F,A,]2 [F,B,] | %29
w: Him, * * * *|||
 [F,C]2 [D,B,] [A,,A,]2 [B,,G,] | [C,F,]3 [C,B,]3 | [F,A,]6 |] %32
w: |||
V:4
 x6 | x6 | x6 | x6 | x6 | x6 | x6 | x6 | x6 | x6 | x6 | x6 | x6 | x6 | x6 | x6 || x6 | x6 | x6 | %19
w: |||||||||||||||||||
 x6 | x6 | x6 | x6 | [C,C]3- x3 | x6 | x6 | x6 | x6 | x6 | x6 | x6 | x6 |] %32
w: ||||~|||||||||

